X:3812
T:Danza (CT 214)
T:Aada (CT 214)
R:Danza
C:Tradicional
S:Msica Tradicional Asturiana, (C) Tello & Tito. Asturies, 2001.
S:http://pagina.de/MusTradAst <telloytito@asturies.org>
N:Danza, transcrita en Meres, ayuntamiento de Siero.
N:Intervienen personas de ambos sexos.
N:Se usa tambin esta meloda como cancin de cuna.
O:Meres (Siero)
A:Asturies
Z:Cancioneru de Torner 214
M:6/8
L:1/8
Q:3/8=80
W:Viva la Virgen del Carmen
W:y la gloriosa Santana,
W:que no hay cara ms hermosa
W:que la que tiene mi dama.
K:G
|d2 d c2 c|(B/>A/ G2) G2 G|G6|d2 d c2 c|(B/>A/ G2) B2 B|B6|
d2 d c2 c|(B/>A/ G2) G2 G|F6|d2 d c2 B|(A/>G/ G2) G2 G|G6||
